!!!COM: Angelo Berardi
!!!OPR: Documenti Armonici
!!!ONB: Canon at the seventh above after a semibreve, CF below
!!!PPR: Giacomo Monti
!!!PDT: 1687
!!!PPP: Bologna
!!!ONB: Reprint ed., Bologna: Forni., 1970.  Bk II p. 100.
!!!ONB: Transcribed from Angelo Berardi, Documenti Armonici, 1687,
**kern	**kern	**kern
*CF	*guida	*conseq
*k[]	*k[]	*k[]
*M4/4	*M4/4	*M4/4
=1-	=1-	=1-
1GG	2G	1r
.	4G	.
.	4G	.
=2	=2	=2
1D	4F	2f
.	4.D	.
.	.	4f
.	8E	.
.	8F	4f
.	8G	.
=3	=3	=3
1AA	4.A	4e
.	.	4.c
.	8B	.
.	4c	.
.	.	8d
.	4A	8e
.	.	8f
=4	=4	=4
1GG	4B	4.g
.	2G	.
.	.	8a
.	.	4b
.	4G	4g
=5	=5	=5
1D	4F	4a
.	8D	2f
.	8E	.
.	8F	.
.	8G	.
.	8A	4f
.	8B	.
=6	=6	=6
1C	4c	4e
.	4e	8c
.	.	8d
.	4e	8e
.	.	8f
.	4e	8g
.	.	8a
=7	=7	=7
1G	4.d	4b
.	.	4dd
.	8c	.
.	2B	4dd
.	.	4dd
=8	=8	=8
1A	4r	4.cc
.	4c	.
.	.	8b
.	4c	2a
.	4c	.
=9	=9	=9
1G	4B	4r
.	4d	4b
.	8G	4b
.	8A	.
.	8B	4b
.	8c	.
=10	=10	=10
1F	4d	4a
.	8c	4cc
.	8B	.
.	8A	8f
.	8B	8g
.	8c	8a
.	8d	8b
=11	=11	=11
1E	4e	4cc
.	4.e	8b
.	.	8a
.	.	8g
.	8f	8a
.	8g	8b
.	8e	8cc
=12	=12	=12
1D	4.f	4dd
.	.	4.dd
.	8e	.
.	4d	.
.	.	8ee
.	[4d	8ff
.	.	8dd
=13	=13	=13
1C	4d]	4.ee
.	4.c	.
.	.	8dd
.	.	4cc
.	8B	.
.	[4A	[4cc
=14	=14	=14
1E	4A]	4cc]
.	8G	4.b
.	8F	.
.	4G	.
.	.	8a
.	4E	[4g
=15	=15	=15
1D	2A	4g]
.	.	8f
.	.	8e
.	4r	4f
.	[4F	4d
=16	=16	=16
1C	4F]	2g
.	8E	.
.	8D	.
.	8E	4r
.	8C	.
.	[4c	[4e
=17	=17	=17
1GG	4c]	4e]
.	8B	8d
.	8A	8c
.	4B	8d
.	.	8B
.	4d	[4b
=18	=18	=18
1AA	2c	4b]
.	.	8a
.	.	8g
.	4r	4a
.	[4A	4cc
=19	=19	=19
1E	4A]	2b
.	8G	.
.	8F	.
.	2G	4r
.	.	[4g
=20	=20	=20
1D	1A	4g]
.	.	8f#
.	.	8e
.	.	2f#
=21	=21	=21
[1GG	[1B	[1g
=22	=22	=22
1GG]	1B]	1g]
==	==	==
*-	*-	*-
!!!CDT: ~1636//-1694/4/9
!!!CNT: Italia
!!!ODT: <1687//
!!!YEP: David Huron and Denis Collins
!!!YEN: Canada
!!!AIN: vox; ?
!!!AST: polyphony
!!!RDT: 1995 July 3
!!!YED: 1995 August 31
!!!AFR: cantus firmus canon
!!!AMT: simple quadruple
!!!EEV: 1.0
